X:4673
T:Northern Nanny
O:england
M:6/4
L:1/4
S:Henry Atkinson 1694/5 trans. John Stokoe 1883
N:Clef and key signature missing:  Key chosen by reference to another
N:version (Northern Nancy, modern reprint, no source given), last note
N:and accidentals
K:G Minor
G |GAG^F2G|A2Bc2A|Bcd^F2G|A2^FG2:||:f>edc>BA|B2cd2A|Bcd^F2G|A3G2:||
